X: 20183
M: 6/8
L: 1/8
K: D
d2A F2A | B2A AGF | (F2E) (G2F) | B3 (ABc) |\
d2A F2A | B2A AGF | EFG B2A | D3- D2 H|] [K:=c][K:G]\
z |\


